projects/ccf-eui/src/assets/icons/organ-icons/organ-icon-ovary-right.svg

<svg width="64" height="64" viewBox="0 0 64 64" fill="currentColor" xmlns="http://www.w3.org/2000/svg">
<path d="M35.7119 33.5573L22.6986 20.7573L22.1439 23.3387C22.1439 23.3387 32.3839 29.2907 35.3066 35.2853C36.2666 32.4267 35.7119 33.5573 35.7119 33.5573Z"  stroke="currentColor" stroke-miterlimit="10"/>
<path d="M7.38129 6.39998C14.912 5.11998 15.9146 12.48 19.7546 12.8C21.5676 12.8924 23.3537 12.3323 24.7893 11.2213L26.6666 16.704C26.6666 16.704 24.4266 18.8373 24.2773 20.2666C24.128 21.696 25.4933 26.8373 23.424 30.72C21.3546 34.6026 18.4533 37.3547 17.728 40.2133C17.0026 43.072 17.5786 44.096 16.0853 50.6666C15.3849 54.2836 13.851 57.6874 11.6053 60.608H7.33862L7.38129 6.39998Z" />
<path d="M46.2043 42.3904C48.5773 37.2829 47.4433 31.7219 43.6714 29.9694C39.8996 28.217 34.9182 30.9368 32.5452 36.0443C30.1722 41.1518 31.3062 46.7128 35.0781 48.4653C38.8499 50.2177 43.8313 47.4979 46.2043 42.3904Z" />
<path d="M47.488 22.5493C45.3547 24.384 44.1173 25.5573 42.816 26.816C43.6829 26.7337 44.5571 26.8483 45.3735 27.1512C46.1899 27.4541 46.9273 27.9375 47.5307 28.5653C48.5649 29.4556 49.4007 30.553 49.984 31.7867C52.3324 29.2533 54.3863 26.4622 56.1067 23.4667C64.64 10.944 52.992 2.70933 39.4667 5.11999C34.0026 6.33072 28.7955 8.49735 24.0853 11.52L26.048 17.152C29.8287 13.8727 34.3091 11.5012 39.1467 10.2187C48.4907 8.06399 57.6 13.696 47.488 22.5493Z" />
</svg>

<svg xmlns="http://www.w3.org/2000/svg" width="64" height="64" fill="currentColor" viewBox="0 0 64 64"><path stroke="currentColor" stroke-miterlimit="10" d="m35.712 33.557-13.013-12.8-.555 2.582s10.24 5.952 13.163 11.946c.96-2.858.405-1.728.405-1.728Z"/><path d="M7.381 6.4c7.531-1.28 8.534 6.08 12.374 6.4a7.6 7.6 0 0 0 5.034-1.579l1.878 5.483s-2.24 2.133-2.39 3.563c-.149 1.429 1.216 6.57-.853 10.453s-4.97 6.635-5.696 9.493c-.725 2.859-.15 3.883-1.643 10.454a23.7 23.7 0 0 1-4.48 9.941H7.34zM46.204 42.39c2.373-5.107 1.24-10.668-2.533-12.42-3.771-1.753-8.753.967-11.126 6.074s-1.239 10.669 2.533 12.421c3.772 1.753 8.753-.967 11.126-6.075"/><path d="M47.488 22.55a97 97 0 0 0-4.672 4.266 5.78 5.78 0 0 1 4.715 1.75 9.75 9.75 0 0 1 2.453 3.22 45.8 45.8 0 0 0 6.123-8.32C64.64 10.945 52.992 2.71 39.467 5.12a47.5 47.5 0 0 0-15.382 6.4l1.963 5.632a32.8 32.8 0 0 1 13.099-6.933c9.344-2.155 18.453 3.477 8.341 12.33"/></svg>
